svgs/thin/candy-cane.svg

<svg xmlns="http://www.w3.org/2000/svg" viewBox="0 0 512 512"><!--! Font Awesome Pro 6.3.0 by @fontawesome - https://fontawesome.com License - https://fontawesome.com/license (Commercial License) Copyright 2023 Fonticons, Inc. --><path d="M497.5 91.1C469.6 33.12 411.8 0 352.4 0c-27.88 0-56.14 7.25-81.77 22.62L243.1 38.1C227.9 48.12 223 67.75 232.1 82.87l32.76 54.87c6.115 10.27 16.69 15.6 27.38 15.6c5.695 0 11.47-1.453 16.51-4.539l27.51-16.37c5.746-3.432 11.37-4.988 16.71-4.988c28.16 0 47.02 41.5 16.13 59.88L15.6 397.6c-15.25 9.125-20.13 28.62-11 43.87l32.76 54.87C43.35 506.4 53.97 512 64.85 512c5.625 0 11.27-1.507 16.39-4.507l347.4-206.5C500.2 258.1 533.2 167.5 497.5 91.1zM328 118.6l-27.67 16.48c-2.402 1.469-5.201 2.246-8.092 2.246c-5.666 0-10.78-2.91-13.69-7.799L245.8 74.61C243.6 70.96 242.1 66.69 243.1 62.58C245 58.44 247.6 54.94 251.3 52.75l27.55-16.4c19.78-11.87 42.18-18.43 65.17-19.78V112.7C338.6 113.8 333.2 115.6 328 118.6zM360 112.7V16.54c53.22 2.76 99.93 33.56 123 82.31C487.5 108.3 490.4 118.1 492.5 128H387.6C380.3 119.8 370.7 114.4 360 112.7zM216.6 296.6l97.21 54l-101.6 60.38l-97.15-53.97L216.6 296.6zM73.14 493.7C70.52 495.2 67.73 496 64.85 496c-5.592 0-10.87-3.012-13.76-7.824l-32.76-54.89c-4.607-7.701-2.199-17.33 5.451-21.91l75.42-44.89l97.14 53.96L73.14 493.7zM329.7 341.1L232.5 287.1l98.42-58.57l96.45 53.58c-2.402 1.627-4.465 3.588-6.981 5.094L329.7 341.1zM441.6 271.8l-94.79-52.66l30.42-18.1c19.34-11.51 27.76-31.7 21.99-52.7C398.8 146.7 397.9 145.5 397.3 144h97.48C499.1 190.9 479.7 239.3 441.6 271.8z"/></svg>

<svg xmlns="http://www.w3.org/2000/svg" viewBox="0 0 512 512"><!-- Font Awesome Pro 6.0.0-alpha2 by @fontawesome - https://fontawesome.com License - https://fontawesome.com/license (Commercial License) --><path d="M497.477 92C469.601 33.125 411.725 0 352.35 0C324.474 0 296.224 7.25 270.599 22.625L243.098 39C227.848 48.125 222.973 67.75 232.098 82.875L264.848 137.75C270.964 148.021 281.599 153.35 292.28 153.35C297.976 153.35 303.681 151.836 308.724 148.75L336.224 132.375C341.971 128.943 347.662 127.447 353.01 127.447C381.172 127.447 399.985 168.865 369.1 187.25L15.595 397.625C0.345 406.75 -4.53 426.25 4.595 441.5L37.345 496.375C43.345 506.375 53.971 512 64.846 512C70.471 512 76.096 510.5 81.221 507.5L428.601 301C500.227 258.125 533.227 167.5 497.477 92ZM328.039 118.627L300.372 135.104C297.97 136.572 295.171 137.35 292.28 137.35C286.614 137.35 281.499 134.439 278.589 129.551L245.797 74.609C243.598 70.963 242.952 66.691 243.977 62.578C245.008 58.439 247.614 54.943 251.284 52.746L278.831 36.344C298.615 24.475 321.013 17.912 344.004 16.564V112.725C338.558 113.824 333.187 115.551 328.039 118.627ZM360.004 112.68V16.537C413.22 19.297 459.931 50.094 483.016 98.848C487.477 108.268 490.42 118.068 492.541 128H387.598C380.274 119.795 370.737 114.416 360.004 112.68ZM216.623 296.609L313.83 350.611L212.26 410.99L115.112 357.02L216.623 296.609ZM73.137 493.691C70.522 495.223 67.73 496 64.846 496C59.254 496 53.973 492.988 51.084 488.176L18.326 433.285C13.718 425.584 16.126 415.951 23.777 411.375L99.202 366.488L196.342 420.453L73.137 493.691ZM329.748 341.148L232.532 287.143L330.955 228.57L427.405 282.152C425.003 283.779 422.94 285.74 420.425 287.246L329.748 341.148ZM441.65 271.762L346.863 219.102L377.284 200.998C396.622 189.488 405.048 169.295 399.272 148.299C398.842 146.734 397.887 145.492 397.325 144H494.809C499.107 190.893 479.654 239.256 441.65 271.762Z"/></svg>
